X: 38984
T: Swallow's Tail, The
R: reel
M: 4/4
K: Adorian
|:eAcA eAcA|cd ef ge dB|G2BG dGBG|Bdef g2fg|
eAcA eAcA|cdef g2fg|afge dBGB|AcBG A2gf:|
|:e~a3 aged|(3Bcd ed gedB|G2BG dGBG|cdef g2fg|
e~a3 aged|(3Bcd ef g2fg|afge dBGB|1 AcBG A2cd:|2 AcBG A2fg||

